2/svg/1f3f3-fe0f-200d-1f308.svg

<?xml version="1.0" encoding="UTF-8" standalone="no"?><svg xmlns:dc="http://purl.org/dc/elements/1.1/" xmlns:cc="http://creativecommons.org/ns#" xmlns:rdf="http://www.w3.org/1999/02/22-rdf-syntax-ns#" xmlns:svg="http://www.w3.org/2000/svg" xmlns="http://www.w3.org/2000/svg" viewBox="0 0 45 45" style="enable-background:new 0 0 45 45;" xml:space="preserve" version="1.1" id="svg2"><metadata id="metadata8"><rdf:RDF><cc:Work rdf:about=""><dc:format>image/svg+xml</dc:format><dc:type rdf:resource="http://purl.org/dc/dcmitype/StillImage"/></cc:Work></rdf:RDF></metadata><defs id="defs6"><clipPath id="clipPath16" clipPathUnits="userSpaceOnUse"><path id="path18" d="M 4,31 C 1.791,31 0,29.209 0,27 L 0,27 0,9 C 0,6.791 1.791,5 4,5 l 0,0 28,0 c 2.209,0 4,1.791 4,4 l 0,0 0,18 c 0,2.209 -1.791,4 -4,4 l 0,0 -28,0 z"/></clipPath></defs><g transform="matrix(1.25,0,0,-1.25,0,45)" id="g10"><g id="g12"><g clip-path="url(#clipPath16)" id="g14"><path id="path20" style="fill:#880082;fill-opacity:1;fill-rule:nonzero;stroke:none" d="M 36,9.5 0,9.5 0,5 36,5 36,9.5 Z"/><path id="path22" style="fill:#3558a0;fill-opacity:1;fill-rule:nonzero;stroke:none" d="m 36,13.93 -36,0 0,-4.6 36,0 0,4.6 z"/><path id="path24" style="fill:#138f3e;fill-opacity:1;fill-rule:nonzero;stroke:none" d="m 36,18.17 -36,0 0,-4.5 36,0 0,4.5 z"/><path id="path26" style="fill:#fad220;fill-opacity:1;fill-rule:nonzero;stroke:none" d="m 36,22.5 -36,0 0,-4.5 36,0 0,4.5 z"/><path id="path28" style="fill:#ff5000;fill-opacity:1;fill-rule:nonzero;stroke:none" d="m 36,26.83 -36,0 0,-4.5 36,0 0,4.5 z"/><path id="path30" style="fill:#ff000e;fill-opacity:1;fill-rule:nonzero;stroke:none" d="m 36,31 -36,0 0,-4.33 36,0 0,4.33 z"/></g></g></g></svg>

<svg xmlns="http://www.w3.org/2000/svg" viewBox="0 0 45 45" enable-background="new 0 0 45 45"><defs><clipPath id="a"><path d="M4 31c-2.2 0-4-1.8-4-4V9c0-2.2 1.8-4 4-4h28c2.2 0 4 1.8 4 4v18c0 2.2-1.8 4-4 4H4z"/></clipPath></defs><g><g><g clip-path="url(#a)" transform="matrix(1.25 0 0 -1.25 0 45)"><path fill="#880082" d="M36 9.5H0V5h36v4.5z"/><path fill="#3558a0" d="M36 13.93H0v-4.6h36v4.6z"/><path fill="#138f3e" d="M36 18.17H0v-4.5h36v4.5z"/><path fill="#fad220" d="M36 22.5H0V18h36v4.5z"/><path fill="#ff5000" d="M36 26.83H0v-4.5h36v4.5z"/><path fill="#ff000e" d="M36 31H0v-4.33h36V31z"/></g></g></g></svg>
